Adwaita++-Dark/status/symbolic/battery-medium-charging-symbolic.svg

<svg height="16" width="16" xmlns="http://www.w3.org/2000/svg">
  <g fill="#e6ddff">
    <path d="m6 1v1h-3v12c0 .55.446 1 1 1h8c.554 0 1-.45 1-1v-12h-3v-1zm2 4v3h3l-3 5v-3h-3z" opacity=".3"/>
    <path d="m3 8v6c0 .55.446 1 1 1h8c.554 0 1-.45 1-1v-6h-2l-3 5v-3h-3l1.1992-2z"/>
  </g>
</svg>

<svg xmlns="http://www.w3.org/2000/svg" width="16" height="16" version="1.1">
 <path style="opacity:0.3;fill:#E6DDFF" d="M 6,1 V 2 H 3 V 14 C 3,14.55 3.446,15 4,15 H 12 C 12.554,15 13,14.55 13,14 V 2 H 10 V 1 Z M 8,5 V 8 H 11 L 8,13 V 10 H 5 Z"/>
 <path style="fill:#E6DDFF" d="M 3,8 V 14 C 3,14.55 3.446,15 4,15 H 12 C 12.554,15 13,14.55 13,14 V 8 H 11 L 8,13 V 10 H 5 L 6.1992,8 Z"/>
</svg>
